src/assets/filled/Translate.svg

<svg width="24" height="24" viewBox="0 0 24 24"  xmlns="http://www.w3.org/2000/svg">
<path d="M8.93 2H5.02C3 2 2 3 2 5.02V8.94C2 11 3 12 5.02 11.95H8.94C11 12 12 11 11.95 8.93V5.02C12 3 11 2 8.93 2ZM9.01 9.76C8.33 9.76 7.67 9.5 7.12 9.04C6.5 9.49 5.75 9.76 4.94 9.76C4.53 9.76 4.19 9.42 4.19 9.01C4.19 8.6 4.53 8.26 4.94 8.26C5.96 8.26 6.81 7.56 7.12 6.6H4.94C4.53 6.6 4.19 6.26 4.19 5.85C4.19 5.44 4.53 5.1 4.94 5.1H6.23C6.27 4.72 6.58 4.42 6.97 4.42C7.36 4.42 7.67 4.72 7.71 5.1H7.97C7.98 5.1 7.99 5.1 7.99 5.1H8.01H9C9.41 5.1 9.75 5.44 9.75 5.85C9.75 6.26 9.42 6.6 9 6.6H8.67C8.58 7.08 8.39 7.53 8.14 7.94C8.41 8.14 8.7 8.26 9.01 8.26C9.42 8.26 9.76 8.6 9.76 9.01C9.76 9.42 9.42 9.76 9.01 9.76Z" />
<path d="M9 22.75C4.73 22.75 1.25 19.27 1.25 15C1.25 14.59 1.59 14.25 2 14.25C2.41 14.25 2.75 14.59 2.75 15C2.75 17.96 4.81 20.44 7.58 21.09L7.31 20.64C7.1 20.28 7.21 19.82 7.57 19.61C7.92 19.4 8.39 19.51 8.6 19.87L9.65 21.62C9.79 21.85 9.79 22.14 9.66 22.37C9.52 22.6 9.27 22.75 9 22.75Z" />
<path d="M21.9999 9.75C21.5899 9.75 21.2499 9.41 21.2499 9C21.2499 6.04 19.1899 3.56 16.4199 2.91L16.6899 3.36C16.8999 3.72 16.7899 4.18 16.4299 4.39C16.0799 4.6 15.6099 4.49 15.3999 4.13L14.3499 2.38C14.2099 2.15 14.2099 1.86 14.3399 1.63C14.4799 1.4 14.7299 1.25 14.9999 1.25C19.2699 1.25 22.7499 4.73 22.7499 9C22.7499 9.41 22.4099 9.75 21.9999 9.75Z" />
<path d="M16.9201 11.85C14.1201 11.85 11.8401 14.12 11.8401 16.93C11.8401 19.73 14.1101 22.01 16.9201 22.01C19.7201 22.01 22.0001 19.74 22.0001 16.93C22.0001 14.12 19.7301 11.85 16.9201 11.85ZM19.4001 19.34C19.0301 19.52 18.5801 19.38 18.3901 19L18.2201 18.66H15.6301L15.4601 19C15.3301 19.26 15.0601 19.41 14.7901 19.41C14.6801 19.41 14.5601 19.38 14.4601 19.33C14.0901 19.14 13.9401 18.69 14.1201 18.32L16.2601 14.05C16.3901 13.8 16.6501 13.64 16.9301 13.64C17.2101 13.64 17.4701 13.8 17.6001 14.06L19.7401 18.33C19.9201 18.7 19.7701 19.15 19.4001 19.34Z" />
<path d="M16.3799 17.1599H17.4699L16.9199 16.0699L16.3799 17.1599Z" />
</svg>

<?xml version="1.0" encoding="UTF-8"?>
<svg width="24" height="24" viewBox="0 0 24 24" xmlns="http://www.w3.org/2000/svg">
 <path d="m8.93 2h-3.91c-2.02 0-3.02 1-3.02 3.02v3.92c0 2.06 1 3.06 3.02 3.01h3.92c2.06 0.05 3.06-0.95 3.01-3.02v-3.91c0.05-2.02-0.95-3.02-3.02-3.02zm0.08 7.76c-0.68 0-1.34-0.26-1.89-0.72-0.62 0.45-1.37 0.72-2.18 0.72-0.41 0-0.75-0.34-0.75-0.75s0.34-0.75 0.75-0.75c1.02 0 1.87-0.7 2.18-1.66h-2.18c-0.41 0-0.75-0.34-0.75-0.75s0.34-0.75 0.75-0.75h1.29c0.04-0.38 0.35-0.68 0.74-0.68s0.7 0.3 0.74 0.68h0.26 0.02 1.01c0.41 0 0.75 0.34 0.75 0.75s-0.33 0.75-0.75 0.75h-0.33c-0.09 0.48-0.28 0.93-0.53 1.34 0.27 0.2 0.56 0.32 0.87 0.32 0.41 0 0.75 0.34 0.75 0.75s-0.34 0.75-0.75 0.75z"/>
 <path d="m9 22.75c-4.27 0-7.75-3.48-7.75-7.75 0-0.41 0.34-0.75 0.75-0.75s0.75 0.34 0.75 0.75c0 2.96 2.06 5.44 4.83 6.09l-0.27-0.45c-0.21-0.36-0.1-0.82 0.26-1.03 0.35-0.21 0.82-0.1 1.03 0.26l1.05 1.75c0.14 0.23 0.14 0.52 0.01 0.75-0.14 0.23-0.39 0.38-0.66 0.38z"/>
 <path d="m22 9.75c-0.41 0-0.75-0.34-0.75-0.75 0-2.96-2.06-5.44-4.83-6.09l0.27 0.45c0.21 0.36 0.1 0.82-0.26 1.03-0.35 0.21-0.82 0.1-1.03-0.26l-1.05-1.75c-0.14-0.23-0.14-0.52-0.01-0.75 0.14-0.23 0.39-0.38 0.66-0.38 4.27 0 7.75 3.48 7.75 7.75 0 0.41-0.34 0.75-0.75 0.75z"/>
 <path d="m16.92 11.85c-2.8 0-5.08 2.27-5.08 5.08 0 2.8 2.27 5.08 5.08 5.08 2.8 0 5.08-2.27 5.08-5.08s-2.27-5.08-5.08-5.08zm2.48 7.49c-0.37 0.18-0.82 0.04-1.01-0.34l-0.17-0.34h-2.59l-0.17 0.34c-0.13 0.26-0.4 0.41-0.67 0.41-0.11 0-0.23-0.03-0.33-0.08-0.37-0.19-0.52-0.64-0.34-1.01l2.14-4.27c0.13-0.25 0.39-0.41 0.67-0.41s0.54 0.16 0.67 0.42l2.14 4.27c0.18 0.37 0.03 0.82-0.34 1.01z"/>
 <path d="m16.38 17.16h1.09l-0.55-1.09-0.54 1.09z"/>
</svg>
